X: 10993
T: Drunken Landlady, The
R: reel
M: 4/4
K: Edorian
M:5/4
B3E EE BA FA|B3E EE BA FB|A3B AF D2 ED|F3A AF BA FA|
B3E EE BA FA|B3E EE BA FB|A3F AB d2 fe|1 d3B AF EA ed:|2 d3B AF EF AF||
B3e ed e2 ag|f3e ed ef dB|A3B AF DA F/E/D|EF FA AF BA FA|
B3e ed e2 ag|f3e ed ef dB|A2 FA AB de fe|d3B AF EF AF|
B3e ed e2 ag|f3b af ef/e/ dB|A3B AF DA F/E/D|EFFA- AF BA FA|
B3e ed e2 ag|"tr"f2 -f2- f2- ef dB|A3F AB d2 fe|d3B AF E2 ed||

